X: 38826
T: Summer
R: jig
M: 6/8
K: Dmajor
a2 f ddd|BAd cBA|Bdf afe|f3 efg|
a2 f ddd|B A d2 (3efg|fge fdB|cBB B3:|
|:fdB B3|cAA A3|dcd fdf|afd efg|
fdB B3|cAA A2 e|fge fdB|cBB B3:|

